Modules/BetterCms.Module.Root/Scss/base_64/icons/editor-unlink.svg

<svg xmlns="http://www.w3.org/2000/svg" width="14" height="11" viewBox="0 0 14 11" enable-background="new 0 0 14 11">
 <path fill="#484748" d="m3 0c-1.65 0-3 1.35-3 3v1c0 1.65 1.35 3 3 3h3l.69-.69-.53-.56.66-.72 1-1.03h-4.32c-.28 0-.5-.22-.5-.5 0-.28.22-.5.5-.5h7c.28 0 .5.22.5.5 0 .28-.22.5-.5.5h-1.19l1 1h.69c.04 0 .06-.03.09-.03l.88-.88c0-.03.03-.05.03-.09v-1c0-.55-.45-1-1-1h-3v-1h3c1.09 0 2 .91 2 2v.44l.53.53.44.44c.02-.14.03-.27.03-.41v-1c0-1.65-1.35-3-3-3h-3l-1 1-1-1h-3m0 1h3v1h-3c-.55 0-1 .45-1 1v1c0 .55.45 1 1 1h3v1h-3c-1.09 0-2-.91-2-2v-1c0-1.09.91-2 2-2"/>
 <g>
  <path fill="#484748" d="m8.56 4.67l-1.02 1.06 2.09 2.08-2.09 2.13 1.02 1.06 2.13-2.12 2.12 2.12 1.03-1.06-2.09-2.13 2.09-2.08-1.03-1.06-2.12 2.12z"/>
 </g>
</svg>

<svg version="1.1" id="Layer_1" xmlns="http://www.w3.org/2000/svg" xmlns:xlink="http://www.w3.org/1999/xlink" x="0px" y="0px"
	 width="14px" height="11px" viewBox="0 0 14 11" enable-background="new 0 0 14 11" xml:space="preserve">
<path id="path4604" fill="#303030" d="M3,0C1.4,0,0,1.4,0,3v1c0,1.6,1.4,3,3,3h3l0.7-0.7L6.2,5.8
	L6.8,5l1-1H3.5C3.2,4,3,3.8,3,3.5C3,3.2,3.2,3,3.5,3h7C10.8,3,11,3.2,11,3.5C11,3.8,10.8,4,10.5,4H9.3l1,1H11c0,0,0.1,0,0.1,0
	L12,4.1c0,0,0-0.1,0-0.1V3c0-0.6-0.4-1-1-1H8V1h3c1.1,0,2,0.9,2,2v0.4L13.5,4L14,4.4c0-0.1,0-0.3,0-0.4V3c0-1.6-1.4-3-3-3H8L7,1L6,0
	H3L3,0z M3,1h3v1H3C2.4,2,2,2.4,2,3v1c0,0.6,0.4,1,1,1h3v1H3C1.9,6,1,5.1,1,4V3C1,1.9,1.9,1,3,1z"/>
<g id="path4691">
	<polygon fill="#474747" points="8.6,4.7 7.5,5.7 9.6,7.8 7.5,9.9 8.6,11 10.7,8.9 12.8,11 13.8,9.9 11.8,7.8 13.8,5.7 12.8,4.7
		10.7,6.8 	"/>
</g>
</svg>
